X:286
T:The ships are sailing
T:Take her out and air her
R:Reel
O:Ireland, USA
B:O'Neill's 1264
B:Roche n199
S:My arrangement from various sources
Z:Transcription, arrangement, chords:Mike Long
M:C|
L:1/8
K:D
"Em"Beed BcdB|"D"AD (3(FED) AD (3(FED)|\
"Em"~E3 F "G"GFGA|"Bm"Beef "(D)"gfed|\
"Em"Beed BcdB|"D"AD (3(FED) AD (3(FED)|
"Em"~E3 F "G"GFGA|[1 "D"Beed "Em"e2ed:|[2 "D"Beed "Em"e2ef\
|:"Em"gfga bgeg|"D"fefg afdf|"Em"gfga "G"bgeg|
"D"fedf "Em"e2 ef|\
"Em"gfga bgeg|"D"fefg afdf|"G"g2 bg "D"f2 af|\
[1 "C"edef gfef:|[2 "C"edef gfed|]
